svgs/sharp-regular/book-blank.svg

<svg xmlns="http://www.w3.org/2000/svg" viewBox="0 0 448 512"><!--! Font Awesome Pro 6.6.0 by @fontawesome - https://fontawesome.com License - https://fontawesome.com/license (Commercial License) Copyright 2024 Fonticons, Inc. --><path d="M88 0C39.4 0 0 39.4 0 88L0 424l.4 0c-.3 2.6-.4 5.3-.4 8c0 44.2 35.8 80 80 80l344 0 24 0 0-48-24 0-8 0 0-64 8 0 24 0 0-24 0-352 0-24L424 0 88 0zM368 400l0 64L80 464c-17.7 0-32-14.3-32-32s14.3-32 32-32l288 0zM80 352c-11.4 0-22.2 2.4-32 6.7L48 88c0-22.1 17.9-40 40-40l312 0 0 304L80 352z"/></svg>

<svg xmlns="http://www.w3.org/2000/svg" viewBox="0 0 448 512"><!--! Font Awesome Pro 6.4.0 by @fontawesome - https://fontawesome.com License - https://fontawesome.com/license (Commercial License) Copyright 2023 Fonticons, Inc. --><path d="M88 0C39.4 0 0 39.4 0 88V424H.4c-.3 2.6-.4 5.3-.4 8c0 44.2 35.8 80 80 80H424h24V464H424h-8V400h8 24V376 24 0H424 88zM368 400v64H80c-17.7 0-32-14.3-32-32s14.3-32 32-32H368zM80 352c-11.4 0-22.2 2.4-32 6.7V88c0-22.1 17.9-40 40-40H400V352H80z"/></svg>
